assets/Japanese passing grade button/Flat/japanese_passing_grade_button_flat.svg

<svg width="32" height="32" viewBox="0 0 32 32" fill="none" xmlns="http://www.w3.org/2000/svg">
<path d="M2 6C2 3.79086 3.79086 2 6 2H26C28.2091 2 30 3.79086 30 6V26C30 28.2091 28.2091 30 26 30H6C3.79086 30 2 28.2091 2 26V6Z" fill="#F92F60"/>
<path d="M15.4531 5.5C15.0394 5.5 14.6683 5.75483 14.5198 6.14102C14.0403 7.38775 11.9028 10.5834 7.66989 12.2238C7.15493 12.4234 6.89925 13.0026 7.09882 13.5176C7.29839 14.0326 7.87764 14.2882 8.39261 14.0887C8.93285 13.8793 9.44433 13.6474 9.92762 13.3982C9.9955 13.3632 10.0785 13.3964 10.114 13.464C10.2812 13.7827 10.6152 14 11 14H21C21.3843 14 21.718 13.7832 21.8854 13.4653C21.9212 13.3972 22.0052 13.3642 22.0733 13.4001C22.5626 13.6582 23.0783 13.892 23.6201 14.0935C24.1378 14.2861 24.7135 14.0225 24.906 13.5049C25.0986 12.9872 24.835 12.4115 24.3174 12.219C20.5379 10.8132 18.1762 7.50353 17.4389 6.0481C17.2686 5.71189 16.9238 5.5 16.5469 5.5H15.4531ZM19.637 11.7731C19.7288 11.8485 19.6763 12 19.5575 12H12.5292C12.4092 12 12.3574 11.8459 12.4515 11.7714C14.14 10.4348 15.2799 8.95686 15.9241 7.81784C15.9719 7.73341 16.0934 7.73034 16.1448 7.81259C16.8492 8.93955 18.0162 10.4427 19.637 11.7731Z" fill="white"/>
<path d="M8 16C7.44772 16 7 16.4477 7 17V25C7 25.5523 7.44772 26 8 26C8.51004 26 8.93089 25.6182 8.99229 25.1248C9.00082 25.0562 9.05596 25 9.125 25H22.875C22.944 25 22.9992 25.0562 23.0077 25.1248C23.0691 25.6182 23.49 26 24 26C24.5523 26 25 25.5523 25 25V17C25 16.4477 24.5523 16 24 16H8ZM22.875 18C22.944 18 23 18.056 23 18.125V22.875C23 22.944 22.944 23 22.875 23H9.125C9.05596 23 9 22.944 9 22.875V18.125C9 18.056 9.05596 18 9.125 18H22.875Z" fill="white"/>
</svg>

<svg xmlns="http://www.w3.org/2000/svg" width="32" height="32" fill="none"><path fill="#F92F60" d="M2 6a4 4 0 0 1 4-4h20a4 4 0 0 1 4 4v20a4 4 0 0 1-4 4H6a4 4 0 0 1-4-4V6Z"/><path fill="#fff" d="M15.453 5.5a1 1 0 0 0-.933.641c-.48 1.247-2.617 4.442-6.85 6.083a1 1 0 0 0 .723 1.865c.54-.21 1.051-.442 1.535-.69.067-.036.15-.003.186.065A1 1 0 0 0 11 14h10a1 1 0 0 0 .885-.535c.036-.068.12-.1.188-.065.49.258 1.005.492 1.547.694a1 1 0 1 0 .697-1.875c-3.78-1.406-6.14-4.715-6.878-6.17a1 1 0 0 0-.892-.549h-1.094Zm4.184 6.273c.092.075.04.227-.08.227H12.53c-.12 0-.172-.154-.078-.229 1.689-1.336 2.829-2.814 3.473-3.953a.129.129 0 0 1 .22-.005 16.723 16.723 0 0 0 3.493 3.96ZM8 16a1 1 0 0 0-1 1v8a1 1 0 0 0 1.992.125c.009-.069.064-.125.133-.125h13.75c.069 0 .124.056.133.125A1 1 0 0 0 25 25v-8a1 1 0 0 0-1-1H8Zm14.875 2c.069 0 .125.056.125.125v4.75a.125.125 0 0 1-.125.125H9.125A.125.125 0 0 1 9 22.875v-4.75c0-.069.056-.125.125-.125h13.75Z"/></svg>
